!!!OTL-incipit: ENTLAUBET IST DER WALDE
!!!ARE: Europa, Mitteleuropa, Deutschland
!!!SCT: Z0316
!!!TXL: @@DE
!!!YEM: Copyright 1995, estate of Helmut Schaffrath.
**kern	**text
*ICvox	*
*M4/4	*
*met(c)	*
*k[]	*
*C:	*
!LO:TX:a:t=Lied aus dem ſechsʒehnten Jahrhundert, componirt von Ludwig Wöffl, Freund Luther's.	!
{4cc	Ent-
=1	=1
4cc	-lau-
4b	-bet
4cc	iſt
4dd	der
=2	=2
(8b/	Wal-
8a)	.
4g	-de,
4r}	.
{4dd	gar
=3	=3
4ee	die-
8dd	-ſen
4cc	Win-
16bL	.
16aJ	.
8bL	-ter
8ccJ	.
=4	=4
(4a	kalt,
4g)	.
!LO:N:vis=4	!
4r}	.
{4cc	Be-
=5	=5
4cc	-rau-
4b	-bet
4cc	werd
4dd	ich
=6	=6
(8b/	bal-
8a)	.
4g	-de
4r}	.
{4dd	meins
=7	=7
4ee	Liebs,
8dd	das
4cc	macht
16bL	.
16aJ	.
8bL	mich
8ccJ	.
=8	=8
(4a	alt.
4g)	.
8r}	.
{8gg	Daß
8ff	ich
8ee	die
=9	=9
4dd	Schön
8cc	muß
4ff	mei-
16eeL	.
16ddJ	.
4ee	.
=10	=10
4dd	-den,
4r	.
4r}	.
{4gg	die
=11	=11
4ff	mir
4ee	ge-
4dd	-fal-
4cc	-len
=12	=12
4dd	thut,
4r	.
4r}	.
{4g	bringt
=13	=13
(8cc	mir
8dd)	.
(8ee	heim-
8ff)	.
4gg	-li-
4dd	-ches
=14	=14
4ff	Lei-
4ee}	-den,
{8dd	und
4gg	macht
(16ffL	.
16eeJ)	.
=15	=15
(16ffL	mir
16eeJ)	.
16ddL	ſchwe-
16ccJ	.
8dd	.
8dd	-ren
!LO:N:vis=2	!
4cc}	Muth.
==	==
!!!AGN: Lyrisches Lied, Romanze
!!!ONB: ESAC (Essen Associative Code) Database: ZUCCAL
!!!AMT: simple quadruple
!!!AIN: vox
!!!EED: Helmut Schaffrath
!!!EEV: 1.0
!!!GTL: IV. Lyrische Lieder.
!!!URL-scan: https://www.digitale-sammlungen.de/de/view/bsb11160571?page=569
!!!ENC: Anna Maria Matuszewska
!!!EEV: 2025/01/31
*-	*-
